svg/ifttt.svg

<?xml version="1.0" encoding="UTF-8"?>
<svg xmlns="http://www.w3.org/2000/svg" xmlns:xlink="http://www.w3.org/1999/xlink" width="32" height="32" viewBox="0 0 32 32">
<path fill-rule="nonzero" fill="rgb(0%, 0%, 0%)" fill-opacity="1" d="M 0 11.75 L 2.699219 11.75 L 2.699219 20.230469 L 0 20.230469 Z M 15.421875 11.75 L 10.796875 11.75 L 10.796875 14.449219 L 12.722656 14.449219 L 12.722656 20.230469 L 15.421875 20.230469 L 15.421875 14.449219 L 17.347656 14.449219 L 17.347656 11.75 Z M 22.746094 11.75 L 18.121094 11.75 L 18.121094 14.449219 L 20.046875 14.449219 L 20.046875 20.230469 L 22.746094 20.230469 L 22.746094 14.449219 L 24.675781 14.449219 L 24.675781 11.75 Z M 30.074219 11.75 L 25.445312 11.75 L 25.445312 14.449219 L 27.375 14.449219 L 27.375 20.230469 L 30.070312 20.230469 L 30.070312 14.449219 L 32 14.449219 L 32 11.75 Z M 10.023438 14.449219 L 10.023438 11.75 L 3.855469 11.75 L 3.855469 20.230469 L 6.554688 20.230469 L 6.554688 17.917969 L 8.867188 17.917969 L 8.867188 15.21875 L 6.554688 15.21875 L 6.554688 14.449219 Z M 10.023438 14.449219 "/>
</svg>

<svg role="img" viewBox="0 0 32 32" height="32" width="32" xmlns="http://www.w3.org/2000/svg"><path d="M0 11.75h2.7v8.48H0Zm15.422 0h-4.625v2.7h1.926v5.78h2.699v-5.78h1.926v-2.7Zm7.324 0h-4.625v2.7h1.926v5.78h2.7v-5.78h1.929v-2.7Zm7.328 0h-4.629v2.7h1.93v5.78h2.695v-5.78H32v-2.7Zm-20.05 2.7v-2.7h-6.17v8.48h2.7v-2.312h2.312v-2.7H6.555v-.769Zm0 0"/></svg>
